svg/dropbox.svg

<svg xmlns="http://www.w3.org/2000/svg" viewBox="0 0 64 61" enable-background="new 0 0 64 61"><style type="text/css">.st0{fill:#343434;}</style><path class="st0" d="M32.5 39l-12.3 9.2-7.2-4.1v4.4l19.5 12.5 19.5-12.4v-4.4l-6.9 4zM63.4 11.9l-18.7-11.9-13 10.8 19.4 11.3zM19.2 43.9l12.5-9.6-18.4-11.8-13.3 10.1zM19.2 0l-19.2 12.5 13.3 10 18.4-11.7zM32 33.8l12.8 9.2 19.2-10.9-12.4-10.1z"/></svg>

<svg xmlns="http://www.w3.org/2000/svg" viewBox="0 0 64 61"><path d="M32.5 39l-12.3 9.2-7.2-4.1v4.4L32.5 61 52 48.6v-4.4l-6.9 4zm30.9-27.1L44.7 0l-13 10.8 19.4 11.3zm-44.2 32l12.5-9.6-18.4-11.8L0 32.6zm0-43.9L0 12.5l13.3 10 18.4-11.7zM32 33.8L44.8 43 64 32.1 51.6 22z" fill="#343434"/></svg>
